X: 5774
T: Cairo
R: waltz
M: 3/4
K: Gmajor
M:9/8
|:DEG|(B3 B2)d BAG|(A3 A)GA BAG|(E3 E2)G E2D|B,6 B,CD|
(E3 E2)G E2D|(B,3 B,2)G EDB,|(A,3 A,)G,A, B,A,G,|1 G,6:|2 (G,3 G,)G,A, B,CD||
|:(E3E2)G E2D|(B,3 B,) G,A, B,CD|(E3 E2)D E2G|(B3 B)G,A, (3B,CD|
(E3 E2)G E2D|(B,3B,2)G EDB,|(A,3 A,)G,A, B,A,G,|1 (G,3 G,)G,A, B,CD:|2 G,6||

